symbols/web/redeem/materialsymbolsoutlined/redeem_wght600gradN25_24px.svg

<svg xmlns="http://www.w3.org/2000/svg" height="24" width="24"><path d="M4.3 16.95v1.775h15.4V16.95Zm0-11.225h1.725q-.1-.225-.162-.475Q5.8 5 5.8 4.725q0-1.275.913-2.188.912-.912 2.187-.912.75 0 1.388.375.637.375 1.087.975L12 3.75l.625-.775q.45-.6 1.088-.975.637-.375 1.362-.375 1.3 0 2.213.9.912.9.912 2.2 0 .275-.075.512-.075.238-.175.488h1.75q1.05 0 1.788.737.737.738.737 1.788v10.475q0 1.05-.737 1.787-.738.738-1.788.738H4.3q-1.05 0-1.787-.738-.738-.737-.738-1.787V8.25q0-1.05.738-1.788.737-.737 1.787-.737Zm0 7.9h15.4V8.25h-4.575l1.8 2.475-1.7 1.225L12 7.45l-3.225 4.5-1.7-1.225L8.85 8.25H4.3Zm4.625-7.9q.425 0 .712-.288.288-.287.288-.712t-.288-.713q-.287-.287-.712-.287t-.712.287q-.288.288-.288.713t.288.712q.287.288.712.288Zm6.15 0q.425 0 .712-.288.288-.287.288-.712t-.288-.713q-.287-.287-.712-.287t-.712.287q-.288.288-.288.713t.288.712q.287.288.712.288Z"/></svg>

<svg xmlns="http://www.w3.org/2000/svg" height="24" width="24"><path d="M4.3 16.95V18.725Q4.3 18.725 4.3 18.725Q4.3 18.725 4.3 18.725H19.7Q19.7 18.725 19.7 18.725Q19.7 18.725 19.7 18.725V16.95ZM4.3 5.725H6.025Q5.925 5.5 5.863 5.25Q5.8 5 5.8 4.725Q5.8 3.45 6.713 2.537Q7.625 1.625 8.9 1.625Q9.65 1.625 10.288 2Q10.925 2.375 11.375 2.975L12 3.75L12.625 2.975Q13.075 2.375 13.713 2Q14.35 1.625 15.075 1.625Q16.375 1.625 17.288 2.525Q18.2 3.425 18.2 4.725Q18.2 5 18.125 5.237Q18.05 5.475 17.95 5.725H19.7Q20.75 5.725 21.488 6.462Q22.225 7.2 22.225 8.25V18.725Q22.225 19.775 21.488 20.512Q20.75 21.25 19.7 21.25H4.3Q3.25 21.25 2.513 20.512Q1.775 19.775 1.775 18.725V8.25Q1.775 7.2 2.513 6.462Q3.25 5.725 4.3 5.725ZM4.3 13.625H19.7V8.25Q19.7 8.25 19.7 8.25Q19.7 8.25 19.7 8.25H15.125L16.925 10.725L15.225 11.95L12 7.45L8.775 11.95L7.075 10.725L8.85 8.25H4.3Q4.3 8.25 4.3 8.25Q4.3 8.25 4.3 8.25ZM8.925 5.725Q9.35 5.725 9.637 5.437Q9.925 5.15 9.925 4.725Q9.925 4.3 9.637 4.012Q9.35 3.725 8.925 3.725Q8.5 3.725 8.213 4.012Q7.925 4.3 7.925 4.725Q7.925 5.15 8.213 5.437Q8.5 5.725 8.925 5.725ZM15.075 5.725Q15.5 5.725 15.787 5.437Q16.075 5.15 16.075 4.725Q16.075 4.3 15.787 4.012Q15.5 3.725 15.075 3.725Q14.65 3.725 14.363 4.012Q14.075 4.3 14.075 4.725Q14.075 5.15 14.363 5.437Q14.65 5.725 15.075 5.725Z"/></svg>
